X: 7574
T: Cocktail, The
R: reel
M: 4/4
K: Dmajor
|:DFFE ~F3 E|DF ~F2 AFEF|DFFE F2 ed|cAAG EFGE:|
A2-A2-A2 GE|~A2 GA BGEG|A2-A2-A3B|=cBcG EFGE|
A3B ~A2 GE|~A2 GA BGEG|A2 a2 a2 zg|fdef dBAF||

